img/youtube.svg

<svg width="25" height="18" viewBox="0 0 25 18" fill="none" xmlns="http://www.w3.org/2000/svg">
<path d="M23.9699 2.93179C23.8335 2.39882 23.5663 1.91289 23.1951 1.52261C22.824 1.13234 22.3619 0.851413 21.855 0.707956C19.9884 0.176758 12.4879 0.176758 12.4879 0.176758C12.4879 0.176758 4.98729 0.176758 3.12071 0.707956C2.61385 0.851413 2.15172 1.13234 1.78057 1.52261C1.40941 1.91289 1.14225 2.39882 1.00582 2.93179C0.657288 4.93347 0.488155 6.96513 0.500644 9.00005C0.488155 11.035 0.657288 13.0666 1.00582 15.0683C1.14225 15.6013 1.40941 16.0872 1.78057 16.4775C2.15172 16.8678 2.61385 17.1487 3.12071 17.2921C4.98729 17.8233 12.4879 17.8233 12.4879 17.8233C12.4879 17.8233 19.9884 17.8233 21.855 17.2921C22.3619 17.1487 22.824 16.8678 23.1951 16.4775C23.5663 16.0872 23.8335 15.6013 23.9699 15.0683C24.3184 13.0666 24.4876 11.035 24.4751 9.00005C24.4876 6.96513 24.3184 4.93347 23.9699 2.93179ZM10.0904 12.7815V5.21864L16.3152 9.00005L10.0904 12.7815Z" fill="#E42F08"/>
</svg>

<svg width="25" height="18" fill="none" xmlns="http://www.w3.org/2000/svg"><path d="M23.97 2.932a3.192 3.192 0 0 0-.775-1.41 2.966 2.966 0 0 0-1.34-.814C19.988.177 12.488.177 12.488.177s-7.5 0-9.367.531a2.966 2.966 0 0 0-1.34.815c-.372.39-.639.876-.775 1.409A34.16 34.16 0 0 0 .5 9a34.16 34.16 0 0 0 .505 6.068c.136.533.403 1.02.775 1.41.37.39.833.67 1.34.814 1.866.531 9.367.531 9.367.531s7.5 0 9.367-.53a2.965 2.965 0 0 0 1.34-.816c.371-.39.639-.876.775-1.409.348-2.001.518-4.033.505-6.068a34.162 34.162 0 0 0-.505-6.068Zm-13.88 9.85V5.218L16.315 9l-6.225 3.781Z" fill="#E42F08"/></svg>
